!!!XEN: Moccasin game song
!!!AGN: Moccasin game [gambling] song
!!!COM: Anonymous
!!!CNT: Native American -- Ojibway
!!!TXO: Ojibway
!!!MLC: Lac du Flambeau reservation, northern Wisconsin, U.S.A.
!!!MRD: 1909-1912///
!!!MPN: E'niwub'e ("Sits farther along")
**kern
*MM84
*Imale
*k[f#c#g#]
*clefF4
*M3/4
=1
8.C#
16c#
12c#
12c#
12G#
16G#
8.G#
=2
8.c#
16G#
12G#
12F#
12C#
16C#
8.C#
=3
8.F#
16G#
12G#
12G#
12G#
16F#
8.F#
=4
8.G#
16A
12G#
12F#
12C#
12C#
12C#
12AA
=5
8.C#
16C#
12C#
12C#
12AA
16AA
8.AA
=6
8.D
16F#
12F#
12F#
12C#
12C#
12C#
12AA
=7
8.C#
16C#
12C#
12C#
12C#
16C#
8.C#
=8
2.C#
==
*-
!!!OCL: Frances Densmore
!!!YOR: Chippewa [i.e., Ojibway] Music--II, Bulletin 53 of the Bureau of American Ethnology, Smitsonian Institution
!!!ONM: 125
!!!PPG: 240
!!!PUB: published
!!!PPR: Government Printing Office
!!!PPP: Washington, D.C.
!!!PDT: 1912///
!!!EST: missing clef changes, text, drum tempo, and drum part
!!!YEC: Copyright 1998 Paul von Hippel
!!!YEM: Rights to all derivate electronic formats reserved.
!!!EFL: 38/42
